icons/label-plus-outline.svg

<svg xmlns="http://www.w3.org/2000/svg" width="24" height="24" viewBox="0 0 24 24">
  <path d="M14.1715729,4 C14.9672223,4 15.7302841,4.31607052 16.2928932,4.87867966 L16.2928932,4.87867966 L21.2928932,9.87867966 C22.4644661,11.0502525 22.4644661,12.9497475 21.2928932,14.1213203 L21.2928932,14.1213203 L16.2928932,19.1213203 C15.7302841,19.6839295 14.9672223,20 14.1715729,20 L14.1715729,20 L5,20 C3.34314575,20 2,18.6568542 2,17 L2,17 L2,7 C2,5.34314575 3.34314575,4 5,4 L5,4 Z M14.1715729,6 L5,6 C4.44771525,6 4,6.44771525 4,7 L4,7 L4,17 C4,17.5522847 4.44771525,18 5,18 L5,18 L14.1715729,18 C14.4367894,18 14.6911433,17.8946432 14.8786797,17.7071068 L14.8786797,17.7071068 L19.8786797,12.7071068 C20.2692039,12.3165825 20.2692039,11.6834175 19.8786797,11.2928932 L19.8786797,11.2928932 L14.8786797,6.29289322 C14.6911433,6.10535684 14.4367894,6 14.1715729,6 L14.1715729,6 Z M10,8 C10.5128358,8 10.9355072,8.38604019 10.9932723,8.88337887 L11,9 L10.999,11 L13,11 C13.5522847,11 14,11.4477153 14,12 C14,12.5128358 13.6139598,12.9355072 13.1166211,12.9932723 L13,13 L10.999,13 L11,15 C11,15.5522847 10.5522847,16 10,16 C9.48716416,16 9.06449284,15.6139598 9.00672773,15.1166211 L9,15 L8.999,13 L7,13 C6.44771525,13 6,12.5522847 6,12 C6,11.4871642 6.38604019,11.0644928 6.88337887,11.0067277 L7,11 L8.999,11 L9,9 C9,8.44771525 9.44771525,8 10,8 Z"/>
</svg>

<svg xmlns="http://www.w3.org/2000/svg" viewBox="0 0 24 24">
  <path d="M14.17 4a3 3 0 0 1 2.12.88l5 5a3 3 0 0 1 0 4.24l-5 5a3 3 0 0 1-2.12.88H5a3 3 0 0 1-3-3V7a3 3 0 0 1 3-3zm0 2H5a1 1 0 0 0-1 1v10a1 1 0 0 0 1 1h9.17a1 1 0 0 0 .7-.3l5-5a1 1 0 0 0 0-1.4l-5-5a1 1 0 0 0-.7-.3zM10 8a1 1 0 0 1 1 .88V11h2a1 1 0 0 1 .12 2H11v2a1 1 0 0 1-2 .12V13H7a1 1 0 0 1-.12-2H9V9a1 1 0 0 1 1-1z"/>
</svg>
